frontend/web/build/img/static/vk-icon.svg

<svg width="21" height="12" viewBox="0 0 21 12" fill="none" xmlns="http://www.w3.org/2000/svg">
<path fill-rule="evenodd" clip-rule="evenodd" d="M19.7422 0.812561C19.8826 0.344174 19.7422 0 19.0737 0H16.8632C16.3011 0 16.042 0.297317 15.9015 0.625168C15.9015 0.625168 14.7773 3.3652 13.1848 5.14503C12.6696 5.66024 12.4354 5.82416 12.1544 5.82416C12.0139 5.82416 11.8105 5.66024 11.8105 5.19189V0.812561C11.8105 0.250497 11.6474 0 11.179 0H7.70527C7.35403 0 7.14279 0.260866 7.14279 0.5081C7.14279 1.04093 7.93899 1.1638 8.02106 2.66264V5.91788C8.02106 6.63158 7.89217 6.76098 7.61114 6.76098C6.86176 6.76098 5.03889 4.0087 3.95776 0.85938C3.74589 0.247261 3.53338 0 2.96843 0H0.757903C0.126324 0 0 0.297317 0 0.625168C0 1.21066 0.749419 4.11462 3.48941 7.95531C5.31606 10.5782 7.88969 12 10.2316 12C11.6367 12 11.8105 11.6842 11.8105 11.1403V9.15789C11.8105 8.52632 11.9436 8.40027 12.3886 8.40027C12.7165 8.40027 13.2785 8.5642 14.59 9.82882C16.0888 11.3276 16.3359 12 17.179 12H19.3895C20.0211 12 20.3369 11.6842 20.1547 11.061C19.9553 10.4399 19.2397 9.53876 18.2902 8.47052C17.775 7.86163 17.0021 7.20593 16.7679 6.878C16.4401 6.45651 16.5338 6.26912 16.7679 5.89445C16.7679 5.89445 19.4611 2.10058 19.7422 0.812561Z" fill="white"/>
</svg>

<svg width="21" height="12" viewBox="0 0 21 12" fill="none" xmlns="http://www.w3.org/2000/svg"><path fill-rule="evenodd" clip-rule="evenodd" d="M19.742.813c.14-.469 0-.813-.668-.813h-2.21c-.563 0-.822.297-.963.625 0 0-1.124 2.74-2.716 4.52-.515.515-.75.68-1.03.68-.141 0-.345-.165-.345-.633V.812c0-.562-.163-.812-.63-.812H7.705c-.351 0-.562.26-.562.508 0 .533.796.656.878 2.155v3.255c0 .714-.129.843-.41.843-.75 0-2.572-2.752-3.653-5.902C3.746.247 3.533 0 2.968 0H.758C.126 0 0 .297 0 .625c0 .586.75 3.49 3.49 7.33C5.315 10.578 7.89 12 10.231 12c1.405 0 1.579-.316 1.579-.86V9.158c0-.632.133-.758.578-.758.328 0 .89.164 2.201 1.429 1.5 1.499 1.747 2.171 2.59 2.171h2.21c.632 0 .948-.316.766-.939-.2-.621-.915-1.522-1.865-2.59-.515-.61-1.288-1.265-1.522-1.593-.328-.421-.234-.609 0-.984 0 0 2.693-3.793 2.974-5.081z" fill="#fff"/></svg>
